X: 40671
T: Top Road
R: polka
M: 2/4
K: Dmajor
|:B|AD DE|FF/F/ ED|AD DE|F/F/F EB|
AD DE|FF/F/ ED|BA FE|F/F/D D2:|
|:A|BA FA|D2 FA|BA FA|F/F/E EA|
B/B/A FA|D2 DE|FA EG|F/F/D D2:|

